X:19
T:Eklundapolska nr 2
C:Viksta-Lasse
R:Polska
S:Efter [[Personer/Kalle Almlöf]], våren 2002
O:Uppland
Z:Erik Ronström 2007-09-09
M:3/4
L:1/16
K:F
AB|:c2c2 dc=Bc a3g|gage fgfc A2B2|d4 d2^cd b2a2|a2fa g4 d4|
f2ef g2d2 fafd|fafd e2c2 e2B2|d4 d2^cd e3d|d2c2 cdcA F2A2|
c2c2 dc=Bc a3g|gage fgfc A2B2|d4 d2^cd b2a2|a2fa g4 d4|
f2ef gagf d2f2|cdcA F2A2 c2f2|efed c2b2 a2gf|1 efge f6 AB:|2 efge f8 ||
|:A3c fcfc acac|A3c fcfc acac|B3d fdfd bdbd|B3d fdfd bdbd|
A3c fcfc acac|F3A c2f2 a2ga|b2ba gagf efed|c2eg f2fc A2F2|
A3c fcfc acac|A3c fcfc acac|B3d fdfd bdbd|B3d fdfd bdbd|
A3c fcfc acac|F3A c2f2 a2ga|b2ba gagf efed|1 c2eg f8:|2 c2eg f6 |]
(:musicend:)

Brudmarsch av Ekor Anders, såsom vi lärde oss den av Jonny Soling, Malungs Folkhögskola hösten 2001.

(:music:)
